svg/300/outlined/landslide-fill.svg

<svg xmlns="http://www.w3.org/2000/svg" width="48" height="48" viewBox="0 -960 960 960"><path d="M100.001-100.001v-161.153L240-216.308l409.998-135.538 189.999 251.845H100.001ZM240-263.692l-139.999-46.692v-106.923L240-372.462l232.844-75.384 142.847 58.693L240-263.692Zm487.691-151.694 156.922-69.999v-130.767l-154.998-34.615-84.999 68.076v100.768l83.075 66.537ZM240-419.845l-139.999-46.692v-153.462h209.998L417.461-478.23 240-419.845Zm242.308-227.079 177.691-71.153v-169.998l-175.768-35.384-104.23 69.615v138.46l102.307 68.46Z"/></svg>

<svg xmlns="http://www.w3.org/2000/svg" width="48" height="48" viewBox="0 -960 960 960"><path d="M100-100v-161.15l140 44.84 410-135.54L840-100H100Zm140-163.69-140-46.69v-106.93l140 44.85 232.84-75.39 142.85 58.7L240-263.69Zm487.69-151.7 156.92-70v-130.76l-155-34.62-84.99 68.08v100.77l83.07 66.53ZM240-419.85l-140-46.69V-620h210l107.46 141.77L240-419.85Zm242.31-227.07L660-718.08v-169.99l-175.77-35.39L380-853.84v138.46l102.31 68.46Z"/></svg>
